X:133
T:Winter’s Tale,The. HSJJ.135
M:4/4
L:1/8
Q:200
S:HSJ Jackson,Wyresdale,Lancs.1823
R:.Reel
O:England
A:Lancashire
N:Illegible dance instructions.
H:1823
Z:vmp.Chris Partington.
K:Bb
(fd)Bd (fd)Bd|gabgf2d2|egce dfBd|BccBA2F2|!
(fd)Bd (fd)Bd|gabgf2d2|egge dffd|ecBAB2B2:|!
|cAFA cdec|dBfdb2f2|efge defd|GccBA2F2|!
cAFA cdec|dBfdb2f2|=efga bgc’b|gbg=e” DC”f2f2|]

